packages/foundations/assets/icons/functional/images/devices/mobile_phone_28.svg

<svg width="28" height="28" viewBox="0 0 28 28" fill="none" xmlns="http://www.w3.org/2000/svg">
<g clip-path="url(#clip0_185_722)">
<path fill-rule="evenodd" clip-rule="evenodd" d="M18.375 1.75C19.8247 1.75 21 2.92525 21 4.375V23.625C21 25.0747 19.8247 26.25 18.375 26.25H9.625C8.17525 26.25 7 25.0747 7 23.625V4.375C7 2.92525 8.17525 1.75 9.625 1.75H18.375ZM10.5 3.5H9.625C9.14175 3.5 8.75 3.89175 8.75 4.375V23.625C8.75 24.1082 9.14175 24.5 9.625 24.5H18.375C18.8582 24.5 19.25 24.1082 19.25 23.625V4.375C19.25 3.89175 18.8582 3.5 18.375 3.5H17.5C17.5 3.98325 17.1082 4.375 16.625 4.375H11.375C10.8918 4.375 10.5 3.98325 10.5 3.5ZM15.75 21C16.2332 21 16.625 21.3918 16.625 21.875C16.625 22.3582 16.2332 22.75 15.75 22.75H12.25C11.7668 22.75 11.375 22.3582 11.375 21.875C11.375 21.3918 11.7668 21 12.25 21H15.75Z" fill="#1A1C1F"/>
</g>
<defs>
<clipPath id="clip0_185_722">
<rect width="28" height="28" fill="white"/>
</clipPath>
</defs>
</svg>

<svg xmlns="http://www.w3.org/2000/svg" width="28" height="28" fill="none"><g clip-path="url(#a)"><path fill="#1A1C1F" fill-rule="evenodd" d="M18.375 1.75A2.625 2.625 0 0 1 21 4.375v19.25a2.625 2.625 0 0 1-2.625 2.625h-8.75A2.625 2.625 0 0 1 7 23.625V4.375A2.625 2.625 0 0 1 9.625 1.75zM10.5 3.5h-.875a.875.875 0 0 0-.875.875v19.25c0 .483.392.875.875.875h8.75a.875.875 0 0 0 .875-.875V4.375a.875.875 0 0 0-.875-.875H17.5a.875.875 0 0 1-.875.875h-5.25A.875.875 0 0 1 10.5 3.5M15.75 21a.875.875 0 0 1 0 1.75h-3.5a.875.875 0 0 1 0-1.75z" clip-rule="evenodd"/></g><defs><clipPath id="a"><path fill="#fff" d="M0 0h28v28H0z"/></clipPath></defs></svg>
